app/img/icons/f6.svg

<svg width="32" height="30" viewBox="0 0 32 30" fill="none" xmlns="http://www.w3.org/2000/svg">
<path d="M32 9.22418C32.001 8.97299 31.9011 8.73199 31.7228 8.55506L23.7054 0.600119C23.3389 0.236494 22.7472 0.237556 22.3821 0.602744L20.0523 2.93262C18.6911 2.80368 17.3025 2.94699 16.0004 3.35118C14.6964 2.94649 13.3105 2.80331 11.9477 2.93262L9.61788 0.602807C9.25276 0.237682 8.66119 0.236494 8.29463 0.600182L0.277194 8.55506C0.0988816 8.73199 -0.000930955 8.97306 6.54497e-06 9.22418C0.000944045 9.47531 0.102757 9.71562 0.282382 9.89112L2.66632 12.2202C2.53469 13.6197 2.69007 15.0487 3.12176 16.3822C3.39451 17.2246 3.76813 18.0148 4.23713 18.7477L3.82063 19.1642C2.72407 20.2608 2.72407 22.0451 3.82063 23.1417C4.07944 23.4006 4.37688 23.5974 4.69426 23.7341C4.08032 24.8081 4.23063 26.2033 5.14651 27.1192C6.06769 28.0404 7.46094 28.1862 8.53051 27.5729C8.66957 27.8942 8.86894 28.1899 9.12401 28.445C10.2214 29.5424 12.0057 29.5407 13.1014 28.445L13.3484 28.198L13.9209 28.7704C13.9524 28.802 13.9856 28.8308 14.0203 28.8569C14.5504 29.3825 15.253 29.6719 16.0001 29.6719C16.7487 29.6719 17.4526 29.3814 17.9832 28.8538C18.5073 28.3459 18.3216 28.5282 18.6518 28.1981C18.9773 28.5236 19.632 29.2688 20.8876 29.2688C21.6388 29.2688 22.3451 28.9762 22.8763 28.4451C23.1315 28.1898 23.331 27.8939 23.4701 27.5722C24.5479 28.1876 25.9407 28.0323 26.8538 27.1192C27.7696 26.2034 27.9199 24.8081 27.306 23.7341C27.6234 23.5975 27.9208 23.4006 28.1796 23.1417C29.2788 22.0426 29.2789 20.2635 28.1796 19.1642L27.7613 18.7459C28.9869 16.8214 29.5482 14.5046 29.3338 12.2202L31.7179 9.89106C31.8973 9.71562 31.999 9.47537 32 9.22418ZM5.14644 21.8159C4.78088 21.4504 4.78088 20.8556 5.14638 20.4901L5.39776 20.2387C5.47719 20.3235 5.55776 20.4074 5.64038 20.4901L6.71926 21.5689L6.47226 21.8159C6.10669 22.1814 5.51201 22.1815 5.14644 21.8159ZM7.79807 25.7934C7.43163 26.1598 6.83869 26.1598 6.47226 25.7934C6.10582 25.4269 6.10582 24.8341 6.47226 24.4676L8.04507 22.8947L9.37094 24.2206L7.79807 25.7934ZM11.7755 27.1192C11.4099 27.4847 10.8152 27.4847 10.4497 27.1192C10.2726 26.9422 10.1751 26.7067 10.1751 26.4564C10.1751 26.2059 10.2726 25.9706 10.4497 25.7934C10.4498 25.7934 10.4498 25.7934 10.4498 25.7933L10.6967 25.5464L12.0225 26.8722L11.7755 27.1192ZM26.8536 21.8161C26.4879 22.1816 25.8933 22.1816 25.5278 21.8161C25.5278 21.8161 25.5278 21.8161 25.5277 21.816L18.8986 15.1868C18.5326 14.8207 17.9389 14.8207 17.5728 15.1868C17.2067 15.5529 17.2067 16.1465 17.5728 16.5126L25.5278 24.4676C25.8933 24.8331 25.8933 25.4279 25.5278 25.7934C25.1623 26.159 24.5675 26.1589 24.2019 25.7934C23.7636 25.3551 16.7151 18.3066 16.2469 17.8384C15.8809 17.4723 15.2873 17.4723 14.9211 17.8384C14.555 18.2046 14.555 18.7981 14.9211 19.1642L21.5508 25.794C21.9166 26.1604 21.9167 26.7527 21.5503 27.1192C21.1839 27.4856 20.5908 27.4856 20.2244 27.1192L13.5953 20.4901C13.2293 20.124 12.6356 20.124 12.2695 20.4901C11.9034 20.8562 11.9034 21.4498 12.2695 21.8159L17.3258 26.8722C17.0214 27.1766 17.1587 27.0417 16.6734 27.5119C16.6698 27.5154 16.6664 27.5188 16.6629 27.5223C16.4858 27.6994 16.2503 27.7969 16 27.7969C15.7496 27.7969 15.5142 27.6994 15.3372 27.5224C15.3337 27.5189 15.3302 27.5154 15.3266 27.512C14.7689 26.9716 7.56426 19.7623 6.96619 19.1643C5.07176 17.2699 4.20182 14.66 4.57932 12.0037C4.62138 11.7081 4.51994 11.41 4.30632 11.2012L2.27376 9.21543L8.95232 2.58887L10.9432 4.57974C11.1516 4.78824 11.4461 4.88656 11.738 4.84499C12.1985 4.77956 12.6641 4.75349 13.1284 4.76443C12.6504 5.10243 12.1986 5.48293 11.7756 5.90606C10.6184 7.06324 7.48763 10.194 6.47226 11.2094C5.37307 12.3086 5.37288 14.0876 6.47226 15.1869C7.02051 15.7352 7.74076 16.0093 8.46094 16.0093C9.18119 16.0093 9.90144 15.7352 10.4497 15.1869L14.2109 11.4257C15.4374 11.8627 16.7483 11.9155 17.9778 11.6144L26.8536 20.4902C27.22 20.8567 27.22 21.4496 26.8536 21.8161ZM27.6937 11.2012C27.4801 11.4099 27.3786 11.7079 27.4207 12.0037C27.6846 13.8604 27.3131 15.7674 26.3958 17.3807L19.8493 10.8342C20.2814 10.5692 20.6874 10.2524 21.0563 9.88349C21.4224 9.51737 21.4224 8.92381 21.0563 8.55768C20.6903 8.19156 20.0966 8.19156 19.7305 8.55768C18.3279 9.96031 16.1837 10.3287 14.3948 9.47418C14.0364 9.30299 13.6087 9.37624 13.3278 9.65724L9.12394 13.8611C8.75844 14.2266 8.16382 14.2267 7.79807 13.8611C7.62101 13.684 7.52344 13.4486 7.52344 13.1981C7.52344 12.9477 7.62101 12.7123 7.79807 12.5352C8.89463 11.4387 12.0164 8.31687 13.1014 7.23193C13.1014 7.23187 13.1015 7.23174 13.1016 7.23168C14.9838 5.34974 17.5908 4.46543 20.2621 4.84499C20.5537 4.88649 20.8484 4.78824 21.0569 4.57974L23.0478 2.58887L29.7263 9.21543L27.6937 11.2012Z" fill="#FA4616"/>
</svg>

<svg width="32" height="30" fill="none" xmlns="http://www.w3.org/2000/svg"><path d="M32 9.224a.937.937 0 00-.277-.669L23.705.6a.938.938 0 00-1.323.003l-2.33 2.33A10.412 10.412 0 0016 3.35a10.4 10.4 0 00-4.052-.418L9.618.603A.937.937 0 008.295.6L.277 8.555a.938.938 0 00.005 1.336l2.384 2.33a10.41 10.41 0 00.456 4.161 10.21 10.21 0 001.115 2.366l-.416.416a2.816 2.816 0 00.873 4.57 2.817 2.817 0 00.453 3.385 2.81 2.81 0 003.384.454 2.816 2.816 0 004.57.872l.247-.247.573.572c.031.032.065.06.1.087.53.526 1.232.815 1.98.815s1.452-.29 1.982-.818c.524-.508.339-.326.669-.656.325.326.98 1.07 2.236 1.07a2.811 2.811 0 002.582-1.697 2.814 2.814 0 003.384-.452 2.817 2.817 0 00.452-3.385 2.81 2.81 0 00.874-4.57l-.419-.418a10.397 10.397 0 001.573-6.526l2.384-2.329A.938.938 0 0032 9.224zM5.146 21.816a.939.939 0 010-1.326l.252-.251c.08.084.16.168.242.251l1.08 1.079-.248.247a.939.939 0 01-1.326 0zm2.652 3.977a.937.937 0 11-1.326-1.325l1.573-1.573 1.326 1.326-1.573 1.572zm3.977 1.326a.939.939 0 01-1.325-1.326l.247-.247 1.326 1.326-.248.247zm15.079-5.303a.939.939 0 01-1.326 0l-6.63-6.63a.937.937 0 00-1.325 1.327l7.955 7.955a.939.939 0 01-1.326 1.325l-7.955-7.955a.937.937 0 00-1.326 1.326l6.63 6.63a.937.937 0 11-1.327 1.325l-6.629-6.629a.937.937 0 00-1.325 1.326l5.056 5.056c-.305.305-.167.17-.653.64a.931.931 0 01-.673.285.931.931 0 01-.673-.285c-.558-.54-7.763-7.75-8.36-8.348a8.374 8.374 0 01-2.388-7.16.938.938 0 00-.273-.803L2.274 9.215 8.952 2.59l1.991 1.99a.937.937 0 00.795.266 8.47 8.47 0 011.39-.08c-.478.337-.93.718-1.352 1.141L6.472 11.21a2.81 2.81 0 001.989 4.8c.72 0 1.44-.274 1.989-.822l3.76-3.761a6.569 6.569 0 003.768.188l8.876 8.876a.937.937 0 010 1.326zm.84-10.615a.937.937 0 00-.273.803 8.508 8.508 0 01-1.025 5.377l-6.547-6.547a6.54 6.54 0 001.207-.95.938.938 0 00-1.326-1.326 4.696 4.696 0 01-5.335.916.938.938 0 00-1.067.183l-4.204 4.204a.939.939 0 01-1.326-1.326l5.303-5.303a8.378 8.378 0 017.161-2.387.938.938 0 00.795-.265l1.99-1.991 6.68 6.626-2.033 1.986z" fill="#FA4616"/></svg>
